dist/images/ico/ico_arrow_03.svg

<svg width="28" height="28" viewBox="0 0 28 28" fill="none" xmlns="http://www.w3.org/2000/svg">
<path d="M17.7895 12.1777C17.5101 11.9408 17.0588 11.9408 16.7794 12.1777L13.9995 14.5345L11.2197 12.1777C10.9403 11.9408 10.489 11.9408 10.2096 12.1777C9.93015 12.4146 9.93015 12.7973 10.2096 13.0342L13.498 15.8223C13.7775 16.0592 14.2288 16.0592 14.5082 15.8223L17.7967 13.0342C18.0689 12.8033 18.0689 12.4146 17.7895 12.1777Z" fill="white"/>
</svg>

<svg width="28" height="28" fill="none" xmlns="http://www.w3.org/2000/svg"><path d="M17.79 12.178a.807.807 0 00-1.01 0L14 14.534l-2.78-2.356a.807.807 0 00-1.01 0 .542.542 0 000 .856l3.288 2.788c.28.237.73.237 1.01 0l3.289-2.788a.547.547 0 00-.008-.856z" fill="#fff"/></svg>
